img/note.svg

<?xml version="1.0" encoding="utf-8"?><!-- Uploaded to: SVG Repo, www.svgrepo.com, Generator: SVG Repo Mixer Tools -->
<svg width="50px" height="50px" viewBox="0 0 24 24" fill="#FFF" xmlns="http://www.w3.org/2000/svg">
<path d="M12.5 8.89001V18.5M12.5 8.89001V5.57656C12.5 5.36922 12.5 5.26554 12.5347 5.17733C12.5653 5.09943 12.615 5.03047 12.6792 4.97678C12.752 4.91597 12.8503 4.88318 13.047 4.81761L17.447 3.35095C17.8025 3.23245 17.9803 3.17319 18.1218 3.20872C18.2456 3.23982 18.3529 3.31713 18.4216 3.42479C18.5 3.54779 18.5 3.73516 18.5 4.10989V7.42335C18.5 7.63069 18.5 7.73436 18.4653 7.82258C18.4347 7.90048 18.385 7.96943 18.3208 8.02313C18.248 8.08394 18.1497 8.11672 17.953 8.18229L13.553 9.64896C13.1975 9.76746 13.0197 9.82671 12.8782 9.79119C12.7544 9.76009 12.6471 9.68278 12.5784 9.57512C12.5 9.45212 12.5 9.26475 12.5 8.89001ZM12.5 18.5C12.5 19.8807 10.933 21 9 21C7.067 21 5.5 19.8807 5.5 18.5C5.5 17.1192 7.067 16 9 16C10.933 16 12.5 17.1192 12.5 18.5Z" stroke="#FFF" stroke-width="2" stroke-linecap="round" stroke-linejoin="round"/>
</svg>

<svg xmlns="http://www.w3.org/2000/svg" width="50" height="50" fill="#FFF" viewBox="0 0 24 24"><path stroke="#FFF" stroke-linecap="round" stroke-linejoin="round" stroke-width="2" d="M12.5 8.89v9.61m0-9.61V5.577c0-.208 0-.311.035-.4a.5.5 0 0 1 .144-.2c.073-.061.171-.094.368-.16l4.4-1.466c.355-.119.533-.178.675-.142a.5.5 0 0 1 .3.216c.078.123.078.31.078.685v3.313c0 .208 0 .311-.035.4a.5.5 0 0 1-.144.2c-.073.06-.171.094-.368.16l-4.4 1.466c-.356.118-.533.178-.675.142a.5.5 0 0 1-.3-.216c-.078-.123-.078-.31-.078-.685m0 9.61c0 1.38-1.567 2.5-3.5 2.5s-3.5-1.12-3.5-2.5S7.067 16 9 16s3.5 1.12 3.5 2.5"/></svg>
